src/assets/svg/investment-3.svg

<svg width="42" height="38" viewBox="0 0 42 38" fill="none" xmlns="http://www.w3.org/2000/svg">
<path d="M32.4494 28.31L35.649 30.4468C35.9591 30.6541 36.3368 30.7346 36.7043 30.6715C37.0719 30.6084 37.4013 30.4067 37.625 30.1077L42 24.2615L39.6667 22.5077L36.1185 27.2489L32.8927 25.0917C32.5777 24.8808 32.1933 24.8011 31.8207 24.8692C31.448 24.9374 31.1165 25.1483 30.8963 25.4571L26.25 31.977V20.4615H23.3333V35.0769C23.3333 35.8522 23.6406 36.5957 24.1876 37.1438C24.7346 37.692 25.4765 38 26.25 38H40.8333V35.0769H27.6252L32.4494 28.31ZM0 27.7692H20.4167V30.6923H0V27.7692ZM0 35.0769H20.4167V38H0V35.0769ZM13.125 20.4615V13.1538H14.5833C16.1298 13.1519 17.6124 12.5354 18.706 11.4394C19.7995 10.3435 20.4147 8.8576 20.4167 7.30769V2.92308H16.0417C14.5484 2.92583 13.1136 3.5053 12.0356 4.541C11.2808 3.16651 10.1719 2.02014 8.82445 1.22143C7.47703 0.422713 5.94047 0.000909342 4.375 0H0V4.38462C0.00270173 6.70953 0.925442 8.93844 2.5658 10.5824C4.20616 12.2264 6.43019 13.1511 8.75 13.1538H10.2083V20.4615H0V23.3846H20.4167V20.4615H13.125ZM16.0417 5.84615H17.5V7.30769C17.5 8.08294 17.1927 8.82644 16.6457 9.37462C16.0987 9.9228 15.3569 10.2308 14.5833 10.2308H13.125V8.76923C13.125 7.99398 13.4323 7.25049 13.9793 6.7023C14.5263 6.15412 15.2681 5.84615 16.0417 5.84615ZM8.75 10.2308C7.2035 10.2288 5.72089 9.61228 4.62734 8.51633C3.5338 7.42039 2.9186 5.93452 2.91667 4.38462V2.92308H4.375C5.9215 2.92501 7.40411 3.54156 8.49766 4.63751C9.5912 5.73346 10.2064 7.21933 10.2083 8.76923V10.2308H8.75Z" fill="#00C700"/>
</svg>

<svg xmlns="http://www.w3.org/2000/svg" width="42" height="38" fill="none"><path fill="#00C700" d="m32.45 28.31 3.199 2.137a1.456 1.456 0 0 0 1.976-.34L42 24.263l-2.333-1.754-3.549 4.74-3.225-2.156a1.456 1.456 0 0 0-1.997.365l-4.646 6.52V20.462h-2.917v14.615c0 .775.308 1.519.855 2.067A2.9 2.9 0 0 0 26.25 38h14.583v-2.923H27.625zM0 27.77h20.417v2.922H0zm0 7.307h20.417V38H0zm13.125-14.615v-7.308h1.458a5.83 5.83 0 0 0 4.123-1.715 5.86 5.86 0 0 0 1.71-4.131V2.923h-4.374a5.8 5.8 0 0 0-4.006 1.618 8.76 8.76 0 0 0-3.212-3.32A8.74 8.74 0 0 0 4.375 0H0v4.385a8.8 8.8 0 0 0 2.566 6.197 8.75 8.75 0 0 0 6.184 2.572h1.458v7.308H0v2.923h20.417V20.46zm2.917-14.616H17.5v1.462c0 .775-.307 1.518-.854 2.067a2.9 2.9 0 0 1-2.063.856h-1.458V8.769c0-.775.307-1.519.854-2.067a2.9 2.9 0 0 1 2.063-.856M8.75 10.231a5.83 5.83 0 0 1-4.123-1.715 5.86 5.86 0 0 1-1.71-4.131V2.923h1.458a5.83 5.83 0 0 1 4.123 1.715 5.86 5.86 0 0 1 1.71 4.131v1.462z"/></svg>
